ncols 57
nrows 37
xllcorner -105.28
yllcorner 49.82
cellsize 0.01
NODATA_value -9999
1217.5 1219.1 1221.2 1223.7 1226.7 1230.0 1233.6 1237.3 1241.1 1244.9 1248.5 1252.0 1255.1 1257.9 1260.2 1262.0 1263.2 1263.9 1263.9 1263.4 1262.3 1260.6 1258.4 1255.7 1252.7 1249.3 1245.7 1242.0 1238.2 1234.5 1230.9 1227.6 1224.6 1221.9 1219.8 1218.1 1217.0 1216.5 1216.5 1217.2 1218.4 1220.2 1222.4 1225.1 1228.2 1231.6 1235.2 1239.0 1242.7 1246.4 1250.0 1253.3 1256.3 1258.8 1260.9 1262.5 1263.5
1216.6 1218.3 1220.4 1223.1 1226.2 1229.6 1233.3 1237.2 1241.2 1245.1 1248.9 1252.5 1255.7 1258.6 1261.0 1262.8 1264.1 1264.8 1264.9 1264.3 1263.1 1261.4 1259.1 1256.3 1253.2 1249.7 1246.0 1242.2 1238.3 1234.5 1230.8 1227.4 1224.4 1221.7 1219.5 1217.8 1216.7 1216.2 1216.2 1216.9 1218.1 1219.9 1222.2 1224.9 1228.1 1231.5 1235.2 1239.1 1243.0 1246.8 1250.4 1253.9 1256.9 1259.6 1261.8 1263.4 1264.4
1216.6 1218.2 1220.4 1223.0 1226.1 1229.6 1233.3 1237.2 1241.2 1245.2 1249.0 1252.6 1255.9 1258.8 1261.2 1263.1 1264.4 1265.1 1265.1 1264.5 1263.3 1261.5 1259.2 1256.5 1253.3 1249.9 1246.2 1242.4 1238.6 1234.9 1231.4 1228.1 1225.2 1222.6 1220.6 1219.0 1217.9 1217.4 1217.5 1218.1 1219.2 1220.9 1223.1 1225.7 1228.7 1232.0 1235.6 1239.4 1243.2 1247.0 1250.6 1254.0 1257.0 1259.7 1261.8 1263.5 1264.5
1217.3 1218.9 1221.0 1223.6 1226.6 1230.0 1233.6 1237.4 1241.3 1245.2 1249.0 1252.6 1255.9 1258.8 1261.2 1263.0 1264.3 1264.8 1264.8 1264.1 1262.9 1261.1 1258.8 1256.1 1253.1 1249.8 1246.4 1242.8 1239.3 1236.0 1232.8 1229.9 1227.3 1225.2 1223.4 1222.1 1221.2 1220.8 1220.9 1221.3 1222.3 1223.7 1225.5 1227.7 1230.4 1233.3 1236.6 1240.0 1243.5 1247.0 1250.5 1253.7 1256.6 1259.1 1261.2 1262.8 1263.7
1218.8 1220.3 1222.3 1224.7 1227.5 1230.7 1234.2 1237.9 1241.7 1245.6 1249.4 1253.0 1256.3 1259.2 1261.6 1263.4 1264.5 1264.9 1264.6 1263.7 1262.3 1260.4 1258.1 1255.5 1252.7 1249.7 1246.6 1243.6 1240.7 1237.9 1235.4 1233.2 1231.4 1229.9 1228.8 1228.0 1227.4 1227.1 1227.1 1227.4 1227.9 1228.8 1230.0 1231.5 1233.5 1235.7 1238.3 1241.1 1244.1 1247.1 1250.2 1253.0 1255.7 1258.0 1259.9 1261.3 1262.2
1221.0 1222.4 1224.2 1226.4 1229.0 1232.0 1235.3 1238.9 1242.7 1246.7 1250.7 1254.6 1258.2 1261.3 1263.8 1265.5 1266.3 1266.3 1265.5 1264.1 1262.2 1260.0 1257.5 1254.9 1252.3 1249.7 1247.2 1244.9 1242.9 1241.1 1239.7 1238.7 1238.0 1237.6 1237.4 1237.4 1237.4 1237.3 1237.3 1237.2 1237.1 1237.1 1237.3 1237.7 1238.5 1239.6 1241.1 1243.0 1245.1 1247.4 1249.8 1252.1 1254.3 1256.2 1257.9 1259.1 1259.9
1223.9 1225.1 1226.7 1228.6 1231.0 1233.8 1237.0 1240.7 1244.8 1249.2 1253.9 1258.6 1263.0 1266.8 1269.7 1271.3 1271.7 1270.9 1269.1 1266.6 1263.6 1260.5 1257.5 1254.7 1252.2 1250.1 1248.3 1247.0 1246.2 1245.8 1246.0 1246.6 1247.6 1248.8 1250.1 1251.1 1251.9 1252.3 1252.1 1251.5 1250.4 1249.2 1247.8 1246.6 1245.7 1245.3 1245.2 1245.7 1246.6 1247.9 1249.4 1251.0 1252.6 1254.0 1255.3 1256.3 1256.9
1227.4 1228.3 1229.7 1231.4 1233.5 1236.2 1239.5 1243.6 1248.4 1253.9 1260.0 1266.4 1272.3 1277.4 1281.1 1282.8 1282.5 1280.4 1276.8 1272.3 1267.5 1262.8 1258.7 1255.3 1252.7 1250.9 1250.0 1249.9 1250.7 1252.2 1254.4 1257.2 1260.4 1263.8 1266.9 1269.5 1271.3 1272.2 1271.9 1270.5 1268.2 1265.3 1261.9 1258.6 1255.4 1252.8 1250.8 1249.5 1248.8 1248.7 1249.0 1249.7 1250.6 1251.5 1252.3 1253.0 1253.4
1231.3 1232.0 1233.1 1234.6 1236.5 1239.2 1242.8 1247.6 1253.6 1260.9 1269.2 1277.9 1286.3 1293.3 1298.2 1300.1 1299.0 1295.0 1288.9 1281.5 1274.0 1266.9 1261.1 1256.6 1253.7 1252.3 1252.3 1253.6 1256.2 1259.9 1264.6 1270.1 1275.9 1281.8 1287.3 1291.7 1294.8 1296.2 1295.8 1293.6 1289.7 1284.7 1279.0 1273.0 1267.2 1262.0 1257.5 1254.0 1251.5 1249.8 1248.8 1248.4 1248.4 1248.6 1248.9 1249.2 1249.4
1235.5 1236.0 1236.8 1238.0 1239.8 1242.6 1246.6 1252.2 1259.6 1269.0 1279.8 1291.4 1302.6 1312.0 1318.3 1320.5 1318.3 1312.2 1303.2 1292.5 1281.7 1272.0 1264.1 1258.4 1255.0 1253.9 1254.8 1257.7 1262.2 1268.3 1275.7 1284.0 1292.8 1301.5 1309.4 1315.9 1320.4 1322.4 1321.8 1318.6 1313.1 1305.9 1297.5 1288.7 1279.9 1271.9 1264.8 1259.0 1254.4 1251.0 1248.6 1247.0 1246.0 1245.5 1245.3 1245.2 1245.1
1239.9 1240.2 1240.6 1241.5 1243.1 1245.8 1250.0 1256.3 1264.9 1276.0 1289.0 1303.0 1316.6 1328.0 1335.5 1337.8 1334.8 1326.7 1315.1 1301.6 1288.0 1275.9 1266.2 1259.5 1255.9 1255.1 1257.1 1261.4 1267.9 1276.3 1286.2 1297.3 1308.8 1320.2 1330.5 1338.9 1344.7 1347.3 1346.6 1342.5 1335.4 1326.1 1315.2 1303.6 1292.1 1281.3 1271.8 1263.7 1257.1 1252.0 1248.1 1245.4 1243.5 1242.3 1241.5 1241.0 1240.7
1244.3 1244.3 1244.4 1244.9 1246.1 1248.5 1252.5 1258.8 1267.7 1279.3 1293.2 1308.2 1322.8 1335.0 1342.9 1345.2 1341.5 1332.4 1319.4 1304.4 1289.4 1276.2 1265.8 1258.8 1255.4 1255.3 1258.3 1264.0 1272.2 1282.5 1294.5 1307.8 1321.6 1335.1 1347.3 1357.2 1364.0 1367.1 1366.3 1361.4 1353.1 1342.1 1329.2 1315.5 1301.7 1288.8 1277.2 1267.2 1258.9 1252.4 1247.3 1243.6 1240.8 1238.9 1237.6 1236.7 1236.2
1248.5 1248.2 1247.9 1247.9 1248.5 1250.2 1253.4 1258.8 1266.8 1277.4 1290.2 1304.2 1317.9 1329.2 1336.5 1338.4 1334.5 1325.5 1312.8 1298.3 1284.0 1271.5 1261.9 1255.7 1253.2 1254.1 1258.1 1264.9 1274.2 1285.8 1299.2 1313.8 1329.0 1343.7 1357.0 1367.7 1375.2 1378.5 1377.6 1372.4 1363.4 1351.4 1337.4 1322.3 1307.3 1293.0 1280.1 1268.9 1259.5 1251.9 1245.9 1241.4 1238.0 1235.5 1233.7 1232.5 1231.8
1252.4 1251.8 1251.1 1250.5 1250.3 1251.0 1252.9 1256.7 1262.6 1270.7 1280.8 1291.9 1302.7 1311.7 1317.4 1318.6 1315.0 1307.2 1296.4 1284.2 1272.4 1262.2 1254.7 1250.4 1249.3 1251.3 1256.2 1263.7 1273.7 1285.8 1299.5 1314.5 1329.9 1344.7 1358.1 1369.0 1376.4 1379.8 1378.9 1373.6 1364.6 1352.6 1338.4 1323.2 1307.9 1293.3 1280.0 1268.4 1258.5 1250.4 1244.0 1238.9 1235.0 1232.1 1230.0 1228.6 1227.7
1255.9 1255.0 1253.8 1252.6 1251.7 1251.2 1251.5 1253.2 1256.4 1261.3 1267.7 1274.9 1282.0 1287.9 1291.3 1291.7 1288.7 1282.7 1274.7 1265.8 1257.4 1250.5 1245.8 1243.7 1244.2 1247.4 1253.0 1260.8 1270.7 1282.5 1295.8 1310.0 1324.6 1338.6 1351.2 1361.3 1368.3 1371.5 1370.6 1365.8 1357.3 1346.0 1332.8 1318.4 1303.9 1290.0 1277.2 1265.9 1256.2 1248.1 1241.5 1236.2 1232.1 1228.9 1226.6 1225.0 1224.0
1258.8 1257.6 1256.1 1254.4 1252.6 1251.1 1250.0 1249.6 1250.3 1252.0 1254.7 1258.1 1261.5 1264.2 1265.5 1265.0 1262.5 1258.3 1253.1 1247.5 1242.5 1238.7 1236.7 1236.7 1238.7 1242.8 1248.8 1256.6 1266.0 1276.9 1288.9 1301.7 1314.7 1327.1 1338.2 1347.1 1353.3 1356.1 1355.3 1351.1 1343.7 1333.8 1322.1 1309.4 1296.5 1284.0 1272.3 1261.9 1252.8 1245.1 1238.7 1233.5 1229.3 1226.1 1223.6 1221.9 1220.8
1261.1 1259.7 1257.9 1255.8 1253.4 1251.0 1248.7 1246.8 1245.4 1244.6 1244.4 1244.7 1245.1 1245.3 1244.9 1243.6 1241.4 1238.5 1235.1 1231.9 1229.4 1227.9 1227.9 1229.5 1232.8 1237.6 1243.9 1251.5 1260.2 1270.0 1280.5 1291.5 1302.5 1312.9 1322.2 1329.6 1334.7 1337.1 1336.5 1333.0 1326.9 1318.7 1309.0 1298.3 1287.3 1276.6 1266.5 1257.3 1249.1 1242.1 1236.1 1231.1 1227.0 1223.7 1221.2 1219.4 1218.3
1262.7 1261.2 1259.2 1256.8 1254.0 1251.0 1247.9 1244.9 1242.2 1239.7 1237.6 1235.8 1234.2 1232.7 1231.0 1228.9 1226.6 1223.9 1221.2 1218.8 1217.3 1216.9 1218.0 1220.8 1225.2 1230.9 1237.8 1245.5 1253.8 1262.7 1271.8 1281.1 1290.1 1298.6 1306.1 1312.1 1316.2 1318.1 1317.7 1315.0 1310.3 1303.7 1295.9 1287.3 1278.3 1269.4 1260.8 1252.9 1245.7 1239.3 1233.8 1229.1 1225.1 1221.9 1219.5 1217.7 1216.6
1263.5 1262.0 1259.8 1257.3 1254.3 1251.0 1247.5 1243.9 1240.4 1237.0 1233.9 1230.9 1228.2 1225.5 1222.7 1219.7 1216.4 1212.8 1209.1 1205.7 1203.3 1202.6 1204.0 1207.7 1213.5 1221.0 1229.3 1238.1 1246.9 1255.5 1263.8 1271.8 1279.3 1286.2 1292.2 1297.0 1300.3 1302.0 1301.8 1299.8 1296.2 1291.2 1285.0 1278.1 1270.8 1263.4 1256.2 1249.4 1243.0 1237.3 1232.2 1227.8 1224.0 1220.9 1218.5 1216.7 1215.6
1263.6 1262.0 1259.9 1257.2 1254.2 1250.8 1247.2 1243.4 1239.6 1235.9 1232.2 1228.7 1225.3 1221.9 1218.1 1213.8 1208.7 1202.7 1196.1 1189.8 1184.7 1182.2 1183.2 1187.9 1195.9 1206.2 1217.5 1228.8 1239.2 1248.6 1256.9 1264.3 1270.9 1276.7 1281.8 1285.8 1288.7 1290.3 1290.4 1289.1 1286.5 1282.6 1277.7 1272.0 1265.9 1259.6 1253.3 1247.2 1241.5 1236.2 1231.5 1227.3 1223.7 1220.7 1218.3 1216.6 1215.6
1262.8 1261.3 1259.2 1256.6 1253.7 1250.4 1246.8 1243.1 1239.3 1235.5 1231.8 1228.1 1224.4 1220.4 1215.6 1209.7 1202.1 1192.8 1182.2 1171.5 1162.5 1157.3 1157.3 1163.1 1173.9 1188.1 1203.4 1218.2 1231.3 1242.3 1251.3 1258.8 1265.1 1270.5 1275.1 1279.0 1281.9 1283.8 1284.4 1283.8 1281.9 1278.8 1274.6 1269.7 1264.2 1258.4 1252.5 1246.7 1241.3 1236.2 1231.7 1227.7 1224.2 1221.3 1219.0 1217.4 1216.4
1261.2 1259.8 1257.9 1255.5 1252.7 1249.7 1246.3 1242.8 1239.3 1235.7 1232.1 1228.5 1224.7 1220.3 1214.8 1207.4 1197.6 1185.2 1170.7 1155.9 1143.1 1135.2 1134.3 1141.0 1154.3 1171.9 1191.0 1209.2 1224.8 1237.5 1247.4 1255.3 1261.8 1267.3 1272.2 1276.4 1279.9 1282.4 1283.8 1283.9 1282.7 1280.1 1276.3 1271.4 1265.9 1260.0 1254.0 1248.1 1242.5 1237.4 1232.9 1228.9 1225.5 1222.7 1220.5 1219.0 1218.0
1258.9 1257.7 1256.0 1253.8 1251.4 1248.6 1245.6 1242.5 1239.3 1236.1 1232.9 1229.5 1225.9 1221.6 1215.9 1208.0 1197.3 1183.4 1167.2 1150.3 1135.7 1126.5 1124.9 1131.8 1146.1 1165.1 1185.7 1205.2 1221.8 1235.2 1245.6 1253.8 1260.7 1266.8 1272.4 1277.5 1282.1 1285.8 1288.2 1289.2 1288.5 1286.2 1282.3 1277.1 1271.1 1264.5 1257.8 1251.3 1245.2 1239.8 1235.0 1231.0 1227.6 1224.9 1222.8 1221.3 1220.4
1256.0 1254.9 1253.5 1251.7 1249.6 1247.3 1244.8 1242.1 1239.4 1236.7 1234.0 1231.1 1228.0 1224.1 1219.0 1211.9 1202.0 1189.3 1174.3 1158.7 1145.2 1136.5 1134.9 1141.1 1154.1 1171.5 1190.3 1208.2 1223.5 1235.9 1245.9 1254.0 1261.3 1268.1 1274.8 1281.3 1287.4 1292.5 1296.3 1298.3 1298.2 1296.0 1291.8 1285.9 1278.8 1271.1 1263.3 1255.8 1249.0 1243.0 1238.0 1233.8 1230.4 1227.7 1225.8 1224.4 1223.5
1252.5 1251.7 1250.6 1249.2 1247.5 1245.7 1243.7 1241.7 1239.6 1237.4 1235.3 1233.1 1230.6 1227.7 1223.8 1218.3 1210.9 1201.2 1189.9 1178.1 1167.8 1161.3 1160.1 1164.9 1174.8 1188.1 1202.6 1216.5 1228.6 1238.8 1247.4 1255.1 1262.6 1270.2 1278.1 1286.1 1293.8 1300.6 1305.8 1308.9 1309.4 1307.2 1302.5 1295.8 1287.6 1278.6 1269.6 1261.0 1253.4 1246.8 1241.4 1237.0 1233.7 1231.1 1229.3 1228.0 1227.2
1248.6 1248.0 1247.2 1246.3 1245.2 1243.9 1242.6 1241.2 1239.7 1238.3 1236.8 1235.3 1233.7 1231.8 1229.2 1225.8 1221.1 1215.1 1208.0 1200.7 1194.4 1190.4 1189.8 1192.9 1199.2 1207.7 1217.1 1226.3 1234.6 1242.1 1249.1 1256.0 1263.5 1271.6 1280.5 1289.8 1298.9 1307.1 1313.6 1317.6 1318.7 1316.6 1311.6 1304.1 1295.0 1285.0 1275.0 1265.6 1257.4 1250.4 1244.8 1240.4 1237.2 1234.8 1233.1 1232.0 1231.4
1244.4 1244.1 1243.7 1243.2 1242.6 1242.0 1241.3 1240.6 1239.9 1239.1 1238.4 1237.6 1236.8 1235.8 1234.6 1232.8 1230.4 1227.4 1223.8 1220.0 1216.8 1214.8 1214.5 1216.1 1219.4 1223.9 1229.0 1234.2 1239.3 1244.3 1249.7 1255.8 1262.9 1271.1 1280.4 1290.4 1300.3 1309.3 1316.6 1321.3 1322.8 1320.9 1315.8 1308.1 1298.7 1288.3 1278.0 1268.4 1260.1 1253.2 1247.7 1243.6 1240.7 1238.6 1237.2 1236.3 1235.8
1240.0 1240.0 1240.0 1240.0 1240.0 1240.0 1240.0 1240.0 1240.0 1240.0 1240.0 1240.0 1239.9 1239.7 1239.4 1238.8 1237.9 1236.7 1235.2 1233.6 1232.2 1231.2 1230.9 1231.4 1232.7 1234.5 1236.6 1239.0 1241.7 1244.9 1248.9 1253.9 1260.2 1267.9 1276.8 1286.5 1296.3 1305.3 1312.7 1317.5 1319.3 1317.8 1313.1 1305.9 1296.9 1287.2 1277.5 1268.6 1260.9 1254.6 1249.8 1246.3 1243.9 1242.3 1241.3 1240.7 1240.3
1235.7 1235.9 1236.3 1236.8 1237.4 1238.0 1238.7 1239.4 1240.1 1240.9 1241.6 1242.2 1242.8 1243.3 1243.7 1243.8 1243.8 1243.5 1243.0 1242.4 1241.7 1241.0 1240.5 1240.2 1240.2 1240.3 1240.7 1241.3 1242.4 1244.1 1246.7 1250.4 1255.5 1261.9 1269.6 1278.1 1286.8 1295.0 1301.7 1306.3 1308.2 1307.1 1303.3 1297.3 1289.7 1281.5 1273.3 1265.9 1259.6 1254.7 1251.0 1248.4 1246.8 1245.8 1245.3 1245.0 1244.8
1231.4 1232.0 1232.7 1233.7 1234.8 1236.0 1237.4 1238.8 1240.3 1241.7 1243.1 1244.4 1245.6 1246.7 1247.6 1248.2 1248.6 1248.8 1248.7 1248.3 1247.8 1247.1 1246.2 1245.3 1244.4 1243.5 1242.7 1242.1 1241.9 1242.3 1243.6 1245.8 1249.3 1254.0 1259.9 1266.5 1273.5 1280.1 1285.7 1289.6 1291.5 1291.0 1288.4 1284.0 1278.5 1272.4 1266.5 1261.2 1256.9 1253.6 1251.3 1249.9 1249.2 1249.0 1249.0 1249.1 1249.2
1227.5 1228.3 1229.4 1230.8 1232.4 1234.2 1236.2 1238.3 1240.4 1242.5 1244.5 1246.4 1248.2 1249.7 1251.0 1252.1 1252.8 1253.1 1253.2 1252.8 1252.2 1251.3 1250.1 1248.7 1247.1 1245.4 1243.8 1242.2 1241.0 1240.3 1240.2 1240.9 1242.7 1245.5 1249.3 1253.8 1258.7 1263.5 1267.7 1270.8 1272.5 1272.7 1271.4 1268.8 1265.6 1262.0 1258.6 1255.7 1253.5 1252.0 1251.3 1251.1 1251.4 1251.9 1252.4 1252.9 1253.2
1224.0 1225.0 1226.5 1228.2 1230.3 1232.6 1235.1 1237.8 1240.5 1243.1 1245.7 1248.2 1250.5 1252.5 1254.1 1255.4 1256.4 1256.8 1256.9 1256.6 1255.8 1254.6 1253.1 1251.2 1249.1 1246.8 1244.5 1242.2 1240.1 1238.3 1237.0 1236.4 1236.5 1237.5 1239.4 1241.8 1244.8 1247.8 1250.7 1253.0 1254.6 1255.4 1255.3 1254.5 1253.4 1252.1 1251.1 1250.4 1250.1 1250.4 1251.1 1252.1 1253.3 1254.4 1255.5 1256.3 1256.8
1221.0 1222.3 1223.9 1226.0 1228.5 1231.2 1234.2 1237.3 1240.5 1243.7 1246.8 1249.7 1252.4 1254.7 1256.7 1258.3 1259.3 1259.9 1260.0 1259.6 1258.7 1257.3 1255.5 1253.2 1250.7 1248.0 1245.0 1242.1 1239.3 1236.6 1234.4 1232.6 1231.5 1231.0 1231.2 1232.1 1233.4 1235.1 1236.9 1238.6 1240.1 1241.3 1242.2 1242.9 1243.5 1244.1 1245.0 1246.1 1247.5 1249.2 1251.0 1253.0 1254.9 1256.6 1258.0 1259.1 1259.8
1218.7 1220.1 1222.0 1224.3 1227.1 1230.2 1233.5 1237.0 1240.6 1244.1 1247.6 1250.9 1253.8 1256.5 1258.7 1260.4 1261.7 1262.3 1262.4 1262.0 1260.9 1259.4 1257.3 1254.8 1252.0 1248.8 1245.5 1242.1 1238.7 1235.4 1232.5 1229.9 1227.8 1226.3 1225.3 1225.0 1225.2 1225.9 1226.9 1228.2 1229.7 1231.2 1232.8 1234.5 1236.4 1238.4 1240.6 1243.1 1245.7 1248.4 1251.1 1253.7 1256.2 1258.3 1260.1 1261.4 1262.2
1217.1 1218.6 1220.6 1223.2 1226.1 1229.4 1233.0 1236.8 1240.6 1244.4 1248.1 1251.6 1254.9 1257.7 1260.1 1261.9 1263.2 1264.0 1264.1 1263.6 1262.5 1260.8 1258.6 1255.9 1252.8 1249.4 1245.8 1242.1 1238.3 1234.7 1231.2 1228.1 1225.4 1223.2 1221.6 1220.5 1220.0 1220.1 1220.7 1221.7 1223.1 1224.9 1227.0 1229.3 1232.0 1234.9 1238.0 1241.2 1244.6 1247.9 1251.2 1254.3 1257.1 1259.5 1261.5 1262.9 1263.8
1216.3 1217.9 1220.0 1222.6 1225.6 1229.0 1232.7 1236.6 1240.6 1244.6 1248.4 1252.0 1255.3 1258.3 1260.7 1262.7 1264.0 1264.8 1264.9 1264.4 1263.2 1261.5 1259.2 1256.4 1253.2 1249.7 1246.0 1242.1 1238.1 1234.3 1230.6 1227.2 1224.2 1221.6 1219.6 1218.1 1217.3 1217.0 1217.3 1218.2 1219.6 1221.5 1223.8 1226.5 1229.6 1232.9 1236.5 1240.2 1244.0 1247.7 1251.2 1254.6 1257.5 1260.1 1262.2 1263.7 1264.6
1216.3 1217.9 1220.0 1222.6 1225.6 1229.0 1232.7 1236.6 1240.6 1244.5 1248.4 1252.0 1255.3 1258.2 1260.7 1262.6 1264.0 1264.7 1264.8 1264.3 1263.2 1261.4 1259.2 1256.4 1253.2 1249.7 1245.9 1242.0 1238.1 1234.2 1230.4 1227.0 1223.8 1221.2 1219.0 1217.4 1216.3 1215.9 1216.1 1216.9 1218.3 1220.2 1222.6 1225.5 1228.7 1232.2 1235.9 1239.7 1243.6 1247.4 1251.1 1254.4 1257.5 1260.1 1262.1 1263.7 1264.6
